X: 35801
T: Salmon's Tail, The
R: reel
M: 4/4
K: Dmajor
|:A2 ed cdec|B2 BA dBGB|A2 ed cdef|gfge dBGB:|
eaa^g a2 ef|gfgd BcdB|eaa^g a2 ef|g2Bd cAAG|
eaa^g a2 ef|gfgd BcdB|A2 ed cdef|gfge dBGB||

